!!!OTL: Schatz, bist du bös (179), S. 392
!!!id: T0358
**kern
*clefG2
*k[f#]
*D:
{16d
=1
16d
4d
8.d
=2yy
16f#
=3
4f#
8d
8f#
=4
4a
8.a
16a
=5
4a}
=6
{8.dd
16a
=7
4a
4a
=8
4a
4d
=9
4f#
8.f#
16f#
=10
4f#}
=11
{8.f#
16f#
=12
8.e
16f#
8e
8f#
=13
4g
8.a
16g
=14
8.f#
16e
8f#
8g
=15
4a}
=16
{8.dd
16a
=17
4a
4a
=18
4a
4d
=19
4f#
8.e
16e
=20
2d}
==
*-
!!!minrhy: 16
!!!meters: 2/4 ]  ZZ[4
!!!cut: Schatz, bist du bös (179), S. 392
!!!reg: Luxemburg
!!!trd: Singendes Volk, Esch-Alzette, 1937 posth.
!!!rhy1:   X__X_.X  X__X_X_  X__X_.X  X__
!!!rhy2: X_.X  X__X__  X__X__  X__X_.X  X__
!!!key: T0358  16  D 2/4 ]  ZZ[4
!!!mod: PENTATONIK DUR ?]  AMBITUS[8
!!!kad: 5351
!!!akz: 1355_5533_2435_5531_
!!!fot: 'a__b__c__bw_
!!!for: 'a__b__c__bv_
!!!fok: '/__Vd_~a_\__
!! PHRAS[VORWIEGEND AUFTAKTIG]
!!!fkt: Tage-, W&auml;chter-, Fenstergang-, St&auml;ndchenlieder, Liebeslied
!!!bem: Burglinster, hhh Eugen Lemmer, 1915
!! THILL; Mathias
!! PR[24] 2K[5] 2G[3] 3K[14] 3G[3] 4A[2] 4Ü[0] 5A[3] 6K[0] 6G[3]
!! 7K[0] 7G[0] 8A[0] MEHR[0] SI[34] ABS[59] SR[8] SP[25]
!! ST[16] 2k[14] 2g[17] 3k[0] 3g[0] 4d[8] 4ü[0] 5d[0] 6k[0] 6g[3]
!! 7k[0] 7g[0] 8d[0] mehr[0] si[42] dm[-8] sr[31] sp[12]
!! 1F[13] 2F[41] 3F[33] 4F[0] LF[0] 2P[0] 3P[13] 4P[0] TRI[0] DF[4] AB[63]
!! TF[0] U3K[0] U3[0] U4[0] U4Ü[0] U5[15] U6K[0] U6[2] U7K[0] U7[5]
!! N1[17] N2K[0] N2[28] N3K[0] N3[20] N4[13] N4Ü[0] N5[0] N6K[0] N6[0]
!!!n7k: 0] N7[0] O1[0] O2K[0] O2[0] O3K[0] O3[0] HÖ[0
!!!RNB: symbol: &auml;      = a umlaut  (UTF-8: Å„)
